lib/flags/tw-taiwan.svg

<svg xmlns="http://www.w3.org/2000/svg" fill="none" aria-hidden="true" viewBox="0 0 42 30"><g id="Country=TW - Taiwan, Size=sm (36x24)" filter="url(#filter0_dd_91_24387)"><g clip-path="url(#clip0_91_24387)"><g id="flag"><mask id="mask0_91_24387" width="36" height="24" x="3" y="2" maskUnits="userSpaceOnUse" style="mask-type:alpha"><rect id="mask" width="36" height="24" x="3" y="2" fill="white"/></mask><g mask="url(#mask0_91_24387)"><g id="contents"><path id="background" fill="#EF0000" fill-rule="evenodd" d="M3 2V26H39V2H3Z" clip-rule="evenodd"/><mask id="mask1_91_24387" width="36" height="24" x="3" y="2" maskUnits="userSpaceOnUse" style="mask-type:alpha"><path id="background_2" fill="white" fill-rule="evenodd" d="M3 2V26H39V2H3Z" clip-rule="evenodd"/></mask><g mask="url(#mask1_91_24387)"><g id="mark"><path id="top" fill="#2E42A5" fill-rule="evenodd" d="M3 2V16H23.25V2H3Z" clip-rule="evenodd"/><path id="Star 19" fill="#FEFFFF" fill-rule="evenodd" d="M12.8209 12.8108L11.1541 14.6594L10.7503 12.3177L8.26696 13.1777L9.2345 10.9703L6.6001 10.6114L8.67967 9.12973L6.6001 7.64807L9.2345 7.28917L8.26696 5.08176L10.7503 5.94178L11.1541 3.6001L12.8209 5.44861L14.4878 3.6001L14.8916 5.94178L17.3749 5.08176L16.4074 7.28917L19.0418 7.64807L16.9622 9.12973L19.0418 10.6114L16.4074 10.9703L17.3749 13.1777L14.8916 12.3177L14.4878 14.6594L12.8209 12.8108ZM12.8209 11.9921C14.5993 11.9921 16.041 10.7106 16.041 9.12975C16.041 7.54892 14.5993 6.2674 12.8209 6.2674C11.0424 6.2674 9.60074 7.54892 9.60074 9.12975C9.60074 10.7106 11.0424 11.9921 12.8209 11.9921ZM15.397 9.12972C15.397 10.3944 14.2436 11.4196 12.8209 11.4196C11.3981 11.4196 10.2448 10.3944 10.2448 9.12972C10.2448 7.86506 11.3981 6.83984 12.8209 6.83984C14.2436 6.83984 15.397 7.86506 15.397 9.12972Z" clip-rule="evenodd"/></g></g></g></g></g></g></g><defs><filter id="filter0_dd_91_24387" width="42" height="30" x="0" y="0" color-interpolation-filters="sRGB" filterUnits="userSpaceOnUse"><feFlood flood-opacity="0" result="BackgroundImageFix"/><feColorMatrix in="SourceAlpha" result="hardAlpha" values="0 0 0 0 0 0 0 0 0 0 0 0 0 0 0 0 0 0 127 0"/><feOffset dy="1"/><feGaussianBlur stdDeviation="1"/><feColorMatrix values="0 0 0 0 0.0627451 0 0 0 0 0.0941176 0 0 0 0 0.156863 0 0 0 0.06 0"/><feBlend in2="BackgroundImageFix" result="effect1_dropShadow_91_24387"/><feColorMatrix in="SourceAlpha" result="hardAlpha" values="0 0 0 0 0 0 0 0 0 0 0 0 0 0 0 0 0 0 127 0"/><feOffset dy="1"/><feGaussianBlur stdDeviation="1.5"/><feColorMatrix values="0 0 0 0 0.0627451 0 0 0 0 0.0941176 0 0 0 0 0.156863 0 0 0 0.1 0"/><feBlend in2="effect1_dropShadow_91_24387" result="effect2_dropShadow_91_24387"/><feBlend in="SourceGraphic" in2="effect2_dropShadow_91_24387" result="shape"/></filter><clipPath id="clip0_91_24387"><rect width="36" height="24" x="3" y="2" fill="white" rx="2"/></clipPath></defs></svg>

<svg xmlns="http://www.w3.org/2000/svg" fill="none" aria-hidden="true" viewBox="0 0 42 30"><g filter="url(#a)"><g clip-path="url(#b)"><mask id="c" width="36" height="24" x="3" y="2" maskUnits="userSpaceOnUse" style="mask-type:alpha"><path fill="#fff" d="M3 2h36v24H3z"/></mask><g mask="url(#c)"><path fill="#EF0000" fill-rule="evenodd" d="M3 2v24h36V2H3Z" clip-rule="evenodd"/><mask id="d" width="36" height="24" x="3" y="2" maskUnits="userSpaceOnUse" style="mask-type:alpha"><path fill="#fff" fill-rule="evenodd" d="M3 2v24h36V2H3Z" clip-rule="evenodd"/></mask><g fill-rule="evenodd" clip-rule="evenodd" mask="url(#d)"><path fill="#2E42A5" d="M3 2v14h20.25V2H3Z"/><path fill="#FEFFFF" d="m12.82 12.81-1.666 1.85-.404-2.342-2.483.86.968-2.208-2.635-.359L8.68 9.13 6.6 7.648l2.635-.359-.968-2.207 2.483.86.404-2.342 1.667 1.849L14.488 3.6l.404 2.342 2.483-.86-.968 2.207 2.635.36-2.08 1.48 2.08 1.482-2.635.36.968 2.207-2.483-.86-.404 2.341-1.667-1.848Zm0-.818c1.78 0 3.221-1.281 3.221-2.862 0-1.581-1.442-2.863-3.22-2.863-1.779 0-3.22 1.282-3.22 2.863 0 1.58 1.441 2.862 3.22 2.862Zm2.577-2.862c0 1.264-1.153 2.29-2.576 2.29s-2.576-1.026-2.576-2.29c0-1.265 1.153-2.29 2.576-2.29s2.576 1.025 2.576 2.29Z"/></g></g></g></g><defs><clipPath id="b"><rect width="36" height="24" x="3" y="2" fill="#fff" rx="2"/></clipPath><filter id="a" width="42" height="30" x="0" y="0" color-interpolation-filters="sRGB" filterUnits="userSpaceOnUse"><feFlood flood-opacity="0" result="BackgroundImageFix"/><feColorMatrix in="SourceAlpha" result="hardAlpha" values="0 0 0 0 0 0 0 0 0 0 0 0 0 0 0 0 0 0 127 0"/><feOffset dy="1"/><feGaussianBlur stdDeviation="1"/><feColorMatrix values="0 0 0 0 0.0627451 0 0 0 0 0.0941176 0 0 0 0 0.156863 0 0 0 0.06 0"/><feBlend in2="BackgroundImageFix" result="effect1_dropShadow_91_24387"/><feColorMatrix in="SourceAlpha" result="hardAlpha" values="0 0 0 0 0 0 0 0 0 0 0 0 0 0 0 0 0 0 127 0"/><feOffset dy="1"/><feGaussianBlur stdDeviation="1.5"/><feColorMatrix values="0 0 0 0 0.0627451 0 0 0 0 0.0941176 0 0 0 0 0.156863 0 0 0 0.1 0"/><feBlend in2="effect1_dropShadow_91_24387" result="effect2_dropShadow_91_24387"/><feBlend in="SourceGraphic" in2="effect2_dropShadow_91_24387" result="shape"/></filter></defs></svg>
